!!!OTL: Rano
!!!ONR: No. 9
!! From Jaap Kunst "Music in New Guinea; Three Studies"
!! Verhandelingen van het Koninkluijk Instituut voor Taal-,
!! Land- end Volkenkunde, Deel 53
!! English translation and correction by Jeune Scott-Kemball
!! Publication Place: 'S-Gravenhage
!! Publisher: Martinus Nijhoff, 1967
!! From Chapter II: Songs of New Guinea, page 90
!!PLACE: Pacifica, New Guinea, Warope\n Coast
!!SINGER: Sindusi
!!!PSX: M
!!!ENCODER: D. Huron
**kern
*clefF4
*k[b-e-]
*M4/8
*>2nd strophe
=1-
4r
8BB-
8BB-
=2
4.D
8F
=3
*M5/8
8D
8F
8D
8D
16r
16D
=4
*M4/8
8D
4BB-
8BB-
=5
4D
8BB-
8BB-
=6
6BB-
6AA
6BB-
=7
3D
12BB-
12BB-
=8
8BB-
8AA
8BB-
8AA
=9
8BB-
8AA
8BB-
8BB-
=10
4r
8r
8BB-
=11
3D
12BB-
12BB-
=12
(8BB-
8AA)
=||;
*>3rd strophe
8r
8BB-
=13
4.D
8E-
=14
8F
8D
8F
8D
=15
8D
4BB-
8BB-
=16
8BB-
4AA
8BB-
=17
3D
6BB-
=18
(6BB-
12AA)
12r
6AA
=19
8BB-
8AA
[4BB-
=20
2BB-];
=||;
*>4th strophe
!! 3/4 = 4/8
*M3/4
8BB-
8BB-
=21
4BB-
4AA
4BB-
=22
2D
8BB-
8BB-
=23
4BB-
4AA
8r
8GG
=24
2AA
8BB-
8BB-
=25
4BB-
4AA
8r
8GG
=26
2AA
8BB-
8BB-
=27
4BB-
4AA
4BB-
=28
4BB-
4AA
8r
8GG
=29
2AA
8BB-
8BB-
=30
4BB-
4AA
8r
8GG
=31
2AA
==||
!! etc.
*-
